dist/assets/toolkit/images/dorezat.svg

<?xml version="1.0" encoding="UTF-8"?>
<svg width="47px" height="49px" viewBox="0 0 47 49" version="1.1" xmlns="http://www.w3.org/2000/svg" xmlns:xlink="http://www.w3.org/1999/xlink">
    <!-- Generator: sketchtool 42 (36781) - http://www.bohemiancoding.com/sketch -->
    <title>0583EA07-F4A3-490B-BB9F-AB87F7EF214A</title>
    <desc>Created with sketchtool.</desc>
    <defs></defs>
    <g id="Page-1" stroke="none" stroke-width="1" fill="none" fill-rule="evenodd">
        <g id="Show-page" transform="translate(-1081.000000, -677.000000)" fill="#7F98F6">
            <g id="Dorezat" transform="translate(1081.000000, 677.000000)">
                <g id="Shape">
                    <path d="M14.6380573,30.8608334 C12.7078566,28.8341569 12.7686703,25.5976056 14.7734982,23.6460353 C16.791129,21.6823731 19.9861183,21.7632699 21.9095806,23.783134 L21.9545591,23.8303096 L20.6901075,12.9814591 C20.3644767,10.1872002 22.3480789,7.64602033 25.1111398,7.31698344 C25.2718495,7.29773853 25.4344122,7.28837154 25.5961326,7.28479505 L25.7982832,4.88394977 C25.9163728,3.48196649 24.8877634,2.24858907 23.5010108,2.1292025 C22.1151004,2.00981592 20.8942796,3.04972238 20.77619,4.45170566 L20.0705161,12.8324388 C20.0267168,13.3518811 19.2582079,13.319863 19.2582079,12.7975255 L19.2582079,2.5478219 C19.2582079,1.14072935 18.129871,0 16.7380645,0 C15.3462581,0 14.2179211,1.14072935 14.2179211,2.5478219 L14.2179211,12.6359023 C14.2179211,13.0609934 13.5954659,13.0986317 13.5461075,12.6757546 L12.5914516,4.48593776 C12.428552,3.08855282 11.1758925,2.08866897 9.79368817,2.25369834 C8.41131541,2.4183871 7.42296774,3.68480445 7.58569892,5.0823597 L9.55346595,21.9657672 C9.60989964,22.4499555 9.02298925,22.7302841 8.68876703,22.3792773 L4.47527599,17.9548211 C3.51000717,16.9413125 1.91470251,16.9104866 0.912035842,17.8865272 C-0.0906308244,18.8623975 -0.120953405,20.4752233 0.844483871,21.4889021 C12.0720932,33.2787095 12.3881219,33.2759846 12.6745018,33.459748 C11.950129,33.5976982 11.4019642,34.2397629 11.4019642,35.012114 L11.4019642,39.1393811 C11.4019642,40.0123848 12.1020789,40.7201888 12.9655986,40.7201888 L24.027276,40.7201888 C23.0786846,39.7240518 15.6523477,31.9257752 14.6380573,30.8608334 L14.6380573,30.8608334 Z"></path>
                    <path d="M44.1966774,31.5178853 L46.9349749,17.9577164 C47.1881685,16.7033909 46.3878208,15.4790399 45.1469534,15.2228952 C43.9070968,14.9682833 42.6952043,15.7763993 42.4418423,17.0305544 L41.3502294,22.4365011 C41.2520179,22.9225629 40.5428065,22.8113511 40.5839104,22.3247785 L41.4125591,12.4839867 C41.5306487,11.0820034 40.5020394,9.84862599 39.1152867,9.72923941 C37.728871,9.60985284 36.5085556,10.6499296 36.3904659,12.0517426 L35.6847921,20.4324757 C35.6404875,20.9573679 34.8724839,20.9198999 34.8724839,20.3975624 L34.8724839,10.1480291 C34.8724839,8.74093657 33.744147,7.60020722 32.3523405,7.60020722 C30.9605341,7.60020722 29.8321971,8.74093657 29.8321971,10.1480291 L29.8321971,20.2361095 C29.8321971,20.6618819 29.2100789,20.7024154 29.1603835,20.2759618 L28.2058961,12.086145 C28.0429964,10.6891007 26.7905054,9.68887619 25.4079642,9.85390557 C24.0257599,10.0185943 23.0372437,11.2850117 23.2001434,12.6825669 L25.1679104,29.5659744 C25.224681,30.0532283 24.6352437,30.328107 24.3032115,29.9794846 L20.0897204,25.5550283 C19.1246201,24.5416901 17.5293154,24.5105235 16.5264803,25.4865641 C15.5238136,26.4626047 15.493491,28.0754305 16.4589283,29.0889391 C16.4589283,29.0889391 28.0023978,40.8760215 28.2887778,41.0597849 C27.5645735,41.1979054 27.0164086,41.8397999 27.0164086,42.612151 L27.0164086,46.7394181 C27.0164086,47.6124217 27.7165233,48.3202257 28.580043,48.3202257 L43.4362545,48.3202257 C44.2997742,48.3202257 44.9998889,47.6124217 44.9998889,46.7394181 L44.9998889,42.612151 C44.9998889,41.8353718 44.4453226,41.1909228 43.7148853,41.0577412 C44.0169319,40.637589 44.1971828,40.1222341 44.1971828,39.5631098 L44.1971828,31.5178853 L44.1966774,31.5178853 Z M41.0458244,46.37666 C40.0844301,46.37666 39.3051398,45.5888108 39.3051398,44.6168576 C39.3051398,43.6449044 40.0844301,42.8570552 41.0458244,42.8570552 C42.0072186,42.8570552 42.786509,43.6449044 42.786509,44.6168576 C42.786509,45.5888108 42.0070502,46.37666 41.0458244,46.37666 L41.0458244,46.37666 Z"></path>
                </g>
            </g>
        </g>
    </g>
</svg>

<svg width="47" height="49" viewBox="0 0 47 49" xmlns="http://www.w3.org/2000/svg"><title>0583EA07-F4A3-490B-BB9F-AB87F7EF214A</title><g fill="#7F98F6" fill-rule="evenodd"><path d="M14.638 30.86c-1.93-2.026-1.87-5.262.135-7.214a5.009 5.009 0 0 1 7.137.137l.045.047-1.265-10.849c-.326-2.794 1.658-5.335 4.421-5.664.16-.02.323-.029.485-.032l.202-2.401c.118-1.402-.91-2.635-2.297-2.755-1.386-.12-2.607.92-2.725 2.323l-.705 8.38c-.044.52-.813.488-.813-.034V2.548C19.258 1.14 18.13 0 16.738 0c-1.392 0-2.52 1.14-2.52 2.548v10.088c0 .425-.623.463-.672.04l-.955-8.19c-.162-1.397-1.415-2.397-2.797-2.232-1.383.164-2.371 1.43-2.208 2.828l1.967 16.884c.057.484-.53.764-.864.413l-4.214-4.424a2.5 2.5 0 0 0-3.563-.068 2.567 2.567 0 0 0-.068 3.602c11.228 11.79 11.544 11.787 11.83 11.97a1.576 1.576 0 0 0-1.272 1.553v4.127c0 .873.7 1.581 1.564 1.581h11.061l-9.389-9.86z"/><path d="M44.197 31.518l2.738-13.56c.253-1.255-.547-2.479-1.788-2.735a2.295 2.295 0 0 0-2.705 1.808l-1.092 5.406c-.098.486-.807.374-.766-.112l.829-9.841c.118-1.402-.911-2.635-2.298-2.755-1.386-.12-2.606.92-2.725 2.323l-.705 8.38c-.045.525-.813.488-.813-.034v-10.25c0-1.407-1.128-2.548-2.52-2.548-1.391 0-2.52 1.14-2.52 2.548v10.088c0 .426-.622.466-.672.04l-.954-8.19c-.163-1.397-1.415-2.397-2.798-2.232-1.382.165-2.37 1.431-2.208 2.829l1.968 16.883c.057.487-.533.762-.865.413l-4.213-4.424a2.5 2.5 0 0 0-3.564-.068 2.567 2.567 0 0 0-.067 3.602s11.543 11.787 11.83 11.97a1.576 1.576 0 0 0-1.273 1.553v4.127c0 .873.7 1.581 1.564 1.581h14.856c.864 0 1.564-.708 1.564-1.58v-4.128c0-.777-.555-1.421-1.285-1.554.302-.42.482-.936.482-1.495v-8.045zm-3.151 14.859a1.75 1.75 0 0 1-1.74-1.76c0-.972.778-1.76 1.74-1.76.961 0 1.74.788 1.74 1.76s-.779 1.76-1.74 1.76z"/></g></svg>
